svg/store_edit_outline.svg

<svg xmlns="http://www.w3.org/2000/svg" viewBox="0 0 24 24"><path d="M20 6H4V4h16zm-6 10.13-3 3V20H4v-6H3v-2l1-5h16l.61 3.07c-.45.1-.88.33-1.22.67l-.57.57L18.36 9H5.64l-.6 3h13.09l-2 2H14zM12 14H6v4h6zm10.85-.53-1.32-1.32c-.2-.2-.53-.2-.72 0l-.98.98 2.04 2.04.98-.98c.2-.19.2-.52 0-.72M13 19.96V22h2.04l6.13-6.12-2.04-2.05z"/></svg>

<svg xmlns="http://www.w3.org/2000/svg" id="mdi-store-edit-outline" viewBox="0 0 24 24"><path d="M20 6H4V4H20V6M14 16.13L11 19.13V20H4V14H3V12L4 7H20L20.61 10.07C20.16 10.17 19.73 10.4 19.39 10.74L18.82 11.31L18.36 9H5.64L5.04 12H18.13L16.13 14H14V16.13M12 14H6V18H12V14M22.85 13.47L21.53 12.15C21.33 11.95 21 11.95 20.81 12.15L19.83 13.13L21.87 15.17L22.85 14.19C23.05 14 23.05 13.67 22.85 13.47M13 19.96V22H15.04L21.17 15.88L19.13 13.83L13 19.96Z" /></svg>
